X:38
T:Nobody's Gigge
C:Richard Tarnady
M:C|
Q:1/2=90
K:D
%%MIDI channel 1
%%MIDI program 72
%%MIDI transpose 8
%%MIDI grace 1/8
%%MIDI ratio 3 1
|:d2|c2 A2 A2 Bc|d2 D2 D2 d2|c2 A2 A2 Bc|d6 cd|
edcB A2 Bc|d2 D2 D2 g2|f2 ed c d2 c|d6:|
|:d2|cd e2 AB c2|defg f2 ed|ef g2 g2 fe|fg a2 a2 d2|
cd e2 AB c2|defg f2 g2|f2 ed c d2 c|d6:|

